!! 00000] TT[WS
!!!OTL: Xiu qilin
!!!ARE: Asia, China, Shanxi Hequ
!! Ethnic Group: Han
!! WII, 82 (2)
!!!SCT: J0523
!!!YEM: Copyright 1995, estate of Helmut Schaffrath.
**kern
*ICvox
*Ivox
*M2/4
*k[f#]
*G:
{4b
8ee
8dd
=1
8b
8b
8a
8g
=2
4b
8ee
8dd
=3
8b
8b
8a
8e
=4
2g}
=5
{8.dd
16gg
8ee
8dd
=6
8.b
16dd
8a
8e
=7
2g}
=8
{8g
8g
8e
8d
=9
8dd
8dd
8b
16a
16a
=10
8g
8a
8dd
8b
=11
2a}
=12
{8dd
8dd
8b
8dd
=13
8f#
8e
4d
=14
8dd
16a
16b
16a
16g
16f#
16e
=15
2d}
=16
{8.b
16gg
8ee
8dd
=17
8b
8b
8b
8b}
=18
{8dd
8dd
8b
8dd
=19
8f#
8e
4d
=20
8dd
16a
16b
16a
16g
16f#
16e
=21
2d}
==
!!!AGN: Xiaodiao. Qingge, Sichun
!!!ONB: ESAC (Essen Associative Code) Database: CHINA
!!!AMT: simple duple
!!!AIN: vox
!!!EED: Helmut Schaffrath
!!!EEV: 1.0
*-
